X:1
T:Vier Gesänge
T:Am Bodensee
T:Robert Schumann
T:August von Platen
T:Am Bodensee
T:Nr. 2 aus Vier Gesänge, Op. 59
T:CPDL - Creative Commons Attribution Non Commercial 3.0
T:CPDL - Creative Commons Attribution Non Commercial 3.0
T:CPDL - Creative Commons Attribution Non Commercial 3.0
T:CPDL - Creative Commons Attribution Non Commercial 3.0
T:CPDL - Creative Commons Attribution Non Commercial 3.0
T:CPDL - Creative Commons Attribution Non Commercial 3.0
T:CPDL - Creative Commons Attribution Non Commercial 3.0
C:Robert Schumann
Z:August von Platen
Z:CPDL - Creative Commons Attribution Non Commercial 3.0
%%score [ ( 1 2 ) 3 4 5 ]
L:1/8
Q:1/4=100
M:4/4
K:Eb
V:1 treble nm="Sopran"
V:2 treble 
V:3 treble nm="Alt"
V:4 treble-8 nm="Tenor"
V:5 bass nm="Bass"
V:1
!mf!"^Lebhaft, freudig" G2 F>E B3 B | c2 e>e g4 | g2 d>d e2 c>c | f2 c>c d2 B2 | B3 c B2 A2 | %5
w: 1.~Schwel- le die Se- gel,|güns- ti- ger Wind!|Tra- ge mein Schiff an das|U- fer der Fer- ne;|schei- den muss ich,|
w: 2.~Schwel- le die Se- gel,|güns- ti- ger Wind,|dass ich den Bo- den, den|hei- mi- schen schau- e;|* du wohl, Hel-|
 !>!f2 F>B A2 G2 | e2 d>c (f2 B>)c | d2 c>c =B2 c2- |!<(! c2 e>e (g2 f)!<)!_B | d2 c>c B4 :| %10
w: so scheid' ich ger- ne;|1.+2.~schwel- le die Se- * gel,|güns- ti- ger Wind, schwel-|* le die Se- * gel,|güns- ti- ger Wind!|
w: ve- ti- ens Au- e,|||||
!f! G2 B>e (g2 e)G | B2 A>B G2 G2- | G2 B>e g2 e>c | B2 (3FGA A2 G2 |"^<>" A4 E4 |"^<>" e4 =B4 | %16
w: Schwel- le die Se- * gel,|güns- ti- ger Wind, wenn|_ ich auch hier in Ent-|zü- cken _ ver- wei- le,|drü- ben,|drü- ben|
w: ||||||
 c2 =de gfd_B | b2 e2 d2 _d>d | c2 _c2 B2 A>A | G2 (G2 A2) B>B | c2 d2 e2 f>f | g2 G4 F>E | %22
w: knüp- fen mich lie- * ben- de|Sei- le; schwel- le die|Se- gel, güns- ti- ger|Wind, schwel- * le die|Se- gel, güns- ti- ger|Wind, schwel- le die|
w: ||||||
 A3 A =A2 G>F | B4 G2 B>e | (g2 e)G B2 _A>B | G2 !>!G4 B>e | (g2 e)G B2 F>G | E4!ff! G2 F>E | %28
w: Se- gel, güns- ti- ger|Wind, schwel- le die|Se- * gel, güns- ti- ger|Wind, schwel- le die|Se- * gel, güns- ti- ger|Wind! Schwel- le die|
w: ||||||
 B3 B c2 e>e | g6 z2 |[M:3/4]!p![Q:1/4=80]"^Langsam" G4 A2 | A2 G2 GG | c4- cd | c2 =B2 G=A | %34
w: Se- gel, güns- ti- ger|Wind!|Wie- der-|keh- rend nach dem|Va- * ter-|lan- de, hofft' ich|
w: ||||||
 =Bc de f>B | d2 c2 z2 | z6 | z2 z2 _dc | c2 =B2 e>=d | c3!<(! c cc!<)! |!>(! d4-!>)! d^F | %41
w: dei- ne Li- lien- hand zu|drü- cken,||traut'- re|Ban- de wür- den|uns, so hofft' ich,|dann _ be-|
w: |||||||
 =A2 G2 GG | G>G GG ^FF | ^F2 G2 _d2- | d4- d_d | c4 B2- | B4- BB | A4!pp! A2 | A3 A AA | %49
w: glü- cken, wie- der-|keh- rend nach dem Va- ter-|lan- de! We-|* * he|mir, we-|* * he|mir, du|bist vo- ran- ge-|
w: ||||||||
 A2 A2 A2 | =A3 A B>c | c2 _d2 dc | B_A _G3 F | F2 =E2 EE | F4 FF | !fermata!^F4"^cresc." FF | %56
w: gan- gen, du|bist vo- ran- ge-|gan- gen nach viel|bes- ser'm Va- ter-|lan- de, we- he|mir, we- he|mir! Welch' Ver-|
w: |||||||
 G2 =F2 FF | B2 =A2 AA | =d4 c2 | c2 =B2!p! BB | fd =B3 B | (=B2 c2) FF | _BG =E3 E | %63
w: lan- gen, dass auch|ich bald mei- nen|Na- chen|steu'- re nach viel|bes- ser'm Va- ter-|land, _ nach viel|bes- ser'm Va- ter-|
w: |||||||
 (=E2 F2) _E2 |"^<>" (E4 D2) | C4 z2 |] %66
w: land, _ o|Teu- *|re!|
w: |||
V:2
 x8 | x8 | x8 | x8 | B2 cc x4 | x8 | x8 | x8 | x8 | x8 :| x8 | x8 | x8 | x8 | x8 | x8 | x8 | x8 | %18
w: ||||||||||||||||||
w: ||||fah- re *||||||||||||||
 x8 | x8 | x8 | x8 | x8 | x8 | x8 | x8 | x8 | x8 | x8 | x8 |[M:3/4] x6 | x6 | x6 | x6 | x6 | x6 | %36
w: ||||||||||||||||||
w: ||||||||||||||||||
 x6 | x6 | x6 | x6 | x6 | x6 | x6 | x6 | x6 | x6 | x6 | x6 | x6 | x6 | x6 | x6 | x6 | x6 | x6 | %55
w: |||||||||||||||||||
w: |||||||||||||||||||
 x6 | x6 | x6 | x6 | x6 | x6 | x6 | x6 | x6 | x6 | x6 |] %66
w: |||||||||||
w: |||||||||||
V:3
!mf! E2 D>E G3 G | A2 A>A G4 | G2 G>G G2 G>G | =A2 A>A B2 F2 | (F2 G)G F2 F2 | !>!A2 F>F E2 E2 | %6
w: ||||||
 E2 F>F F3 =E | F2 _E>E D2 C2- |!<(! C2 G>G (=A2 B)!<)!B | B2 =A>A B4 :|!f! E2 G>B (e2 B)E | %11
w: |||||
 G2 F>G E2 E2- | E2 G>B e2 c>A | G2 (3DEF E2 E2 |"^<>" E4 E4 |"^<>" E4 E4 | E2 EE B2 BB | %17
w: ||||||
 B2 B2 A2 B>B | A2 A2 F2 E>F | G2 (E2 F2) G>G | A2 A2 A2 _c>c | B2 E4 E>E | E3 E F2 F>F | %23
w: ||||||
 F4 E2 G>B | (e2 B)E G2 E>F | E2 !>!E4 G>B | (e2 B)E G2 D>D | E4!ff! E2 D>E | G3 G A2 A>A | G6 z2 | %30
w: |||||||
[M:3/4]!p! E4 E2 | F2 F2 =EE | (F4 A)A | G2 G z z2 | z6 | z2 z2!<(! =EF | GA Bc!<)!!>(! _d>G!>)! | %37
w: |||||hofft' ich|dei- ne Li- lien- hand zu|
 B2 A2 AA | A2 A2 A>A | G3!<(! G GG!<)! |!>(! G4-!>)! GD | D2 D2 D=F | F>E EE DC | C2 =B,2 G2- | %44
w: drü- cken, * *|||||||
 G4- GG | A4 =E2- | E4- E=E | F4!pp! F2 | _G3 G F=E | =E2 F2 F2 | _G3 G G>G | _G2 F2 _DD | %52
w: ||||||||
 _D3 D DD | _D2 D2 DD | =D4 DD | !fermata!E4"^cresc." EE | =E2 F2 FF | =E2 F2 FF | F4 F2 | %59
w: bes- ser'm Va- ter-|lan- de, * *||||||
 F2 F2 z2 | z2!p! F3 F | F2 F2 FF | DD B,3 B, | (B,2 =A,2) F2 |"^<>" F6 | F4 z2 |] %66
w: |nach viel|bes- ser'm, * *|||||
V:4
!mf! B2 A>G _d3 d | c2 c>c B4 | =B2 c>=d c2 e>e | c2 f>f f2 d2 | (d2 c)c c2 c2 | !>!d2 B>B B2 B2 | %6
w: 1.~Schwel- le die Se- gel,|güns- ti- ger Wind!|Tra- ge mein Schiff an das|U- fer der Fer- ne;|schei- * den muss ich,|so scheid' ich ger- ne;|
w: 2.~Schwel- le die Se- gel,|güns- ti- ger Wind!|dass ich den Bo- den, den|hei- mi- schen schau- e;|fah- re du wohl, Hel-|ve- ti- ens Au- e,|
 G2 =A>A B3 B | B2 =A>A G2 G2- |!<(! G2 c>c (e2 d)!<)!e | f2 e>e d4 :| z8 |!f! B2 B>B e2 E2 | %12
w: 1.+2.~schwel- le die Se- gel,|güns- ti- ger Wind, schwel-|* le die Se- * gel,|güns- ti- ger Wind!||Schwel- le die Se- gel,|
w: ||||||
 B2 B>B B2 e>e | B2 B>B B2 B2 |"^<>" A4 A4 |"^<>" B4 _d4 | c2 cc =d2 cd | e2 e2 e2 e>e | %18
w: wenn ich auch hier in Ent-|zü- cken ver- wei- le,|drü- ben,|drü- ben|knüp- fen mich lie- ben- de|Sei- le, schwel- le die|
w: ||||||
 e2 e2 d2 c>d | e2 e4 e>e | e2 e2 e2 d>d | e2 B4 B>B | c3 c c2 c>c | B4 B2 B>B | B3 B B2 c>d | %25
w: Se- gel, güns- ti- ger|Wind, schwel- le die|Se- gel, güns- ti- ger|Wind, schwel- le die|Se- gel, güns- ti- ger|Wind, schwel- le die|Se- gel, güns- ti- ger|
w: |||||||
 e2 !>!B4 B>B | B3 B B2 A>A | G4!ff! B2 A>G | _d3 d c2 c>c | B6 z2 |[M:3/4]!p! c4 c2 | d2 d2 _dd | %32
w: Wind, schwel- le die|Se- gel, güns- ti- ger|Wind! Schwel- le die|Se- gel, güns- ti- ger|Wind!|Wie- der-|keh- rend nach dem|
w: |||||||
 (c4 =d)d | e2 d z z2 | z6 | z2 z2!<(! c=B | _BA GF!<)!!>(! =E>c!>)! | c2 c2 _dd | d2 d2 =B>B | %39
w: Va- * ter-|lan- de,||hofft' ich|dei- ne Li- lien- hand zu|drü- cken, traut'- re|Ban- de wür- den|
w: |||||||
 c3!<(! c cc!<)! |!>(! B4-!>)! B=A | c2 =B2 Bd | d>c cc _B_A | A2 G2 B2- | B4- BB | A4 G2- | %46
w: uns, so hofft' ich,|dann _ be-|glü- cken, wie- der-|keh- rend nach dem Va- ter-|lan- de! We-|* * he|mir, we-|
w: |||||||
 G4- GG | A4!pp! _d2 | e3 e _dc | c2 _d2 f2 | e3 e e>e | e2 _d2 FF | FF _G3 A | A2 =G2 GG | A4 AA | %55
w: * * he|mir, du|bist vo- ran- ge-|gan- gen, du|bist vo- ran- ge-|gan- gen nach viel|bes- ser'm Va- ter-|lan- de, we- he|mir, we- he|
w: |||||||||
 !fermata!=A4"^cresc." AA | B2 =A2 AA | G2 F2 FF | B4 =A2 | =A2 ^G2 z2 | z2!p! ^G3 G | ^G2 =A2 AA | %62
w: mir! Welch' Ver-|lan- gen, dass auch|ich bald mei- nen|Na- chen|steu'- re|nach viel|bes- ser'm, nach viel|
w: |||||||
 =GG G3 G | (G2 F2) =A2 |"^<>" (c4 B2) | =A4 z2 |] %66
w: bes- ser'm Va- ter-|land, _ o|Teu- *|re!|
w: ||||
V:5
!mf! E,2 E,>E, E,3 E, | E,2 E,>E, E,4 | G,2 =A,>=B, C2 C>C | F,2 F,>F, _B,2 B,2 | %4
w: ||||
 (B,2 =E,)E, F,2 (G,A,) | !>!B,2 D,>D, _E,2 D,2 | C,2 E,>E, (D,2 G,>)G, | F,2 ^F,>F, G,2 E,2- | %8
w: ||||
!<(! E,2 C,>C, =F,3!<)! F, | F,2 F,>F, B,4 :| z4!f! B,3 B, | B,2 B,>B, E,2 E,2 | %12
w: ||Schwel- le,|schwel- le die Se- gel,|
 B,2 B,>B, B,2 A,>A, | B,2 B,,>B,, E,2 _D,2 |"^<>" C,4 C,4 |"^<>" G,4 G,4 | A,2 A,A, A,2 A,A, | %17
w: |||||
 G,2 G,2 F,2 G,>G, | A,2 F,2 B,2 B,>B, | E,2 (E2 D2) _D>D | C2 =B,2 C2 A,>A, | E2 E,4 _D,>D, | %22
w: |||||
 C,3 C, E,2 E,>E, | =D,4 E,2 E,>E, | E,3 E, B,2 B,,>B,, | E,2 !>!E,4 E,>E, | E,3 E, B,2 B,,>B,, | %27
w: |||||
 E,4!ff! E,2 E,>E, | E,3 E, E,2 E,>E, | E,6 z2 |[M:3/4]!p! C4 C2 | =B,2 B,2 _B,B, | (A,4 F,)F, | %33
w: ||||||
 G,2 G, z z2 | z6 | z2 z2!<(! C,D, | =E,F, G,A,!<)!!>(! B,>E,!>)! | G,2 F,2 F,F, | F,2 F,2 F,>F, | %39
w: ||||||
 E,3!<(! E, E,E,!<)! |!>(! D,4-!>)! D,D, | D,2 G,2 G,,G,, | G,,6 | G,,2 z2 =E,2- | E,4- E,=E, | %45
w: ||* * dann be-|glü-|cken! *||
 F,4 _D,2- | D,4- D,_D, | _D,4 z2 | z6 | z2 z2!pp! _D2 | C3 C B,>=A, | =A,2 B,2 B,,B,, | %52
w: |||||||
 B,,3 B,, B,,B,, | B,,2 B,,2 B,,B,, | =B,,4 B,,B,, | !fermata!C,4"^cresc." C,C, | C,2 C,2 C,C, | %57
w: bes- ser'm Va- ter-|lan- de, * *||||
 C,2 C,2 C,C, | C,4 C,2 | C,2 D,2 z2 | z2!p! D,3 D, | D,2 C,2 D,D, | G,,B,, ^C,3 C, | %63
w: ||||||
 (^C,2 D,2) =C,2 |"^<>" (B,,4 D,2) | F,4 z2 |] %66
w: |||

